img/content_number1.svg

<svg height="81.547" viewBox="0 0 80.788 81.547" width="80.788" xmlns="http://www.w3.org/2000/svg"><path d="m2.119 0c-.398.021-2.219 2.338-2.119 4.159a2.4 2.4 0 0 0 2.476 2.341 2.443 2.443 0 0 0 2.2-2.622c-.105-1.825-2.16-3.899-2.557-3.878z" fill="#1f9aff" transform="translate(48.005 1.182)"/><path d="m0 1.464a2.889 2.889 0 0 0 3.462-1.464 1.808 1.808 0 0 1 -1.688 2.353 1.821 1.821 0 0 1 -1.774-.889z" fill="#1790e2" transform="translate(48.59 4.727)"/><path d="m.947.044a4.367 4.367 0 0 0 -.937 1.579c-.057.158.153.211.277.063a4.429 4.429 0 0 0 .88-1.505c.033-.116-.096-.253-.22-.137z" fill="#3fafff" transform="translate(48.59 1.773)"/><path d="m3.5 0c-.491-.059-3.216 2.067-3.478 4.042a2.771 2.771 0 0 0 2.551 3.029 2.892 2.892 0 0 0 3.26-2.371c.251-1.974-1.842-4.638-2.333-4.7z" fill="#1f9aff" transform="translate(62.055 10.046)"/><path d="m0 .955a3.892 3.892 0 0 0 4.683-.955 2.231 2.231 0 0 1 -2.657 2.353 2.289 2.289 0 0 1 -2.026-1.398z" fill="#1790e2" transform="translate(62.64 14.182)"/><path d="m1.5.035a4.916 4.916 0 0 0 -1.478 1.546c-.095.157.137.261.326.136a4.928 4.928 0 0 0 1.387-1.473.158.158 0 0 0 -.235-.209z" fill="#3fafff" transform="translate(63.226 10.637)"/><path d="m2.743 0a5.237 5.237 0 0 0 -2.73 3.407 2.282 2.282 0 0 0 2.081 2.493 2.321 2.321 0 0 0 2.575-2.015 5.1 5.1 0 0 0 -1.926-3.885z" fill="#1f9aff" transform="translate(73.178 23.046)"/><path d="m0 1.008c.761.739 2.817.434 3.512-1.008.019 2.18-1.3 2.415-1.97 2.356a1.89 1.89 0 0 1 -1.542-1.348z" fill="#1790e2" transform="translate(73.763 26)"/><path d="m1 .022a3.174 3.174 0 0 0 -.985 1.034c-.067.106.1.171.218.09a3.188 3.188 0 0 0 .924-.985.107.107 0 0 0 -.157-.139z" fill="#3fafff" transform="translate(74.349 23.637)"/><path d="m2.964 0c-.501 0-2.943 2.571-2.964 4.726a2.927 2.927 0 1 0 5.854.053c.011-2.154-2.399-4.768-2.89-4.779z" fill="#1f9aff" transform="translate(74.934 37.819)"/><path d="m0 1.632c1.119.732 3.873.111 4.658-1.632a2.378 2.378 0 0 1 -2.42 2.952 2.391 2.391 0 0 1 -2.238-1.32z" fill="#1790e2" transform="translate(75.519 41.955)"/><path d="m1.459.038a4.724 4.724 0 0 0 -1.441 1.57c-.091.16.194.226.377.094a4.618 4.618 0 0 0 1.349-1.494c.056-.123-.102-.282-.285-.17z" fill="#3fafff" transform="translate(76.105 38.41)"/><path d="m3.034 0c-.502-.011-2.98 2.532-3.034 4.69a2.927 2.927 0 1 0 5.853.128c.054-2.158-2.328-4.807-2.819-4.818z" fill="#1f9aff" transform="translate(71.421 53.774)"/><path d="m0 1.584c1.1.763 3.86.157 4.664-1.584.225 2.5-1.533 2.932-2.444 2.954a2.422 2.422 0 0 1 -2.22-1.37z" fill="#1790e2" transform="translate(72.007 57.91)"/><path d="m1.462.039a4.678 4.678 0 0 0 -1.444 1.561c-.09.161.181.237.372.095a4.708 4.708 0 0 0 1.355-1.486c.055-.123-.102-.284-.283-.17z" fill="#3fafff" transform="translate(72.592 54.365)"/><path d="m1.744 0a4.653 4.653 0 0 0 -1.736 3.475 2.049 2.049 0 0 0 4.081-.375 4.668 4.668 0 0 0 -2.345-3.1z" fill="#1f9aff" transform="translate(62.64 68.547)"/><path d="m0 1.544c.762.451 2.478-.214 2.868-1.544.324 1.792-.768 2.254-1.353 2.344a1.5 1.5 0 0 1 -1.515-.8z" fill="#1790e2" transform="translate(63.811 71.501)"/><path d="m.938.032a2.891 2.891 0 0 0 -.931 1.054c-.048.106.167.131.287.041a2.785 2.785 0 0 0 .872-1c.034-.087-.108-.176-.228-.095z" fill="#3fafff" transform="translate(63.226 69.729)"/><path d="m2.848 0c-.498.011-2.879 2.638-2.848 4.8a2.927 2.927 0 1 0 5.854-.1c-.042-2.146-2.509-4.711-3.006-4.7z" fill="#1f9aff" transform="translate(46.248 73.865)"/><path d="m0 1.7c1.137.689 3.894.011 4.645-1.7a2.351 2.351 0 0 1 -2.36 2.95 2.411 2.411 0 0 1 -2.285-1.25z" fill="#1790e2" transform="translate(46.834 78.001)"/><path d="m1.449.043a4.679 4.679 0 0 0 -1.434 1.571c-.082.156.2.221.385.083a4.522 4.522 0 0 0 1.341-1.497c.069-.12-.105-.277-.292-.157z" fill="#3fafff" transform="translate(46.834 75.047)"/><path d="m2.143 0a5.133 5.133 0 0 0 -2.143 3.771 2.312 2.312 0 0 0 2.46 2.135 2.29 2.29 0 0 0 2.22-2.369 5.174 5.174 0 0 0 -2.537-3.537z" fill="#1f9aff" transform="translate(28.686 73.865)"/><path d="m0 1.459a2.877 2.877 0 0 0 3.467-1.459 1.81 1.81 0 0 1 -1.707 2.352 1.8 1.8 0 0 1 -1.76-.893z" fill="#1790e2" transform="translate(29.271 76.82)"/><path d="m.951.044a4.344 4.344 0 0 0 -.942 1.579c-.053.152.148.211.275.07a4.278 4.278 0 0 0 .879-1.493c.037-.133-.085-.273-.212-.156z" fill="#3fafff" transform="translate(29.271 74.456)"/><path d="m2.03 0a5.152 5.152 0 0 0 -2.023 3.837 2.31 2.31 0 0 0 2.531 2.063 2.275 2.275 0 0 0 2.136-2.434 5.17 5.17 0 0 0 -2.644-3.466z" fill="#1f9aff" transform="translate(13.465 65.592)"/><path d="m0 1.527a2.933 2.933 0 0 0 3.448-1.527 1.783 1.783 0 0 1 -1.648 2.346 1.844 1.844 0 0 1 -1.8-.819z" fill="#1790e2" transform="translate(14.05 68.547)"/><path d="m.941.045a4.307 4.307 0 0 0 -.933 1.581c-.051.152.154.206.287.065a4.368 4.368 0 0 0 .871-1.505c.034-.119-.102-.26-.225-.141z" fill="#3fafff" transform="translate(14.05 66.183)"/><path d="m3.076 0c-.5-.021-3.011 2.5-3.076 4.655a2.927 2.927 0 1 0 5.851.192c.066-2.147-2.275-4.826-2.775-4.847z" fill="#1f9aff" transform="translate(1.756 50.819)"/><path d="m0 1.236c1.1.622 3.847.164 4.667-1.236.203 2.021-1.555 2.354-2.467 2.363a2.4 2.4 0 0 1 -2.2-1.127z" fill="#1790e2" transform="translate(2.342 55.546)"/><path d="m1.466.038a4.778 4.778 0 0 0 -1.448 1.562c-.089.162.178.238.368.1a4.694 4.694 0 0 0 1.359-1.491c.055-.114-.1-.286-.279-.171z" fill="#3fafff" transform="translate(2.927 52.001)"/><path d="m2.166 0a5.154 5.154 0 0 0 -2.166 3.761 2.3 2.3 0 0 0 2.452 2.145 2.284 2.284 0 0 0 2.229-2.356 5.187 5.187 0 0 0 -2.515-3.55z" fill="#1f9aff" transform="translate(0 33.682)"/><path d="m0 1.448a2.864 2.864 0 0 0 3.47-1.448 1.817 1.817 0 0 1 -1.714 2.352 1.789 1.789 0 0 1 -1.756-.904z" fill="#1790e2" transform="translate(.585 36.637)"/><path d="m.955.049a4.5 4.5 0 0 0 -.946 1.574c-.052.152.146.21.27.07a4.461 4.461 0 0 0 .884-1.493c.037-.128-.083-.28-.208-.151z" fill="#3fafff" transform="translate(.585 34.273)"/><path d="m2.167 0c-.442.053-2.362 2.694-2.151 4.672a2.652 2.652 0 0 0 2.9 2.4 2.694 2.694 0 0 0 2.336-2.991c-.211-1.988-2.643-4.132-3.085-4.081z" fill="#1f9aff" transform="translate(5.854 16.546)"/><path d="m0 1.978c1.075.536 3.477-.326 4-1.978a2.168 2.168 0 0 1 -1.851 2.924 2.15 2.15 0 0 1 -2.149-.946z" fill="#1790e2" transform="translate(6.44 20.091)"/><path d="m.933.047a4.3 4.3 0 0 0 -.927 1.586c-.046.156.165.192.294.055a4.207 4.207 0 0 0 .862-1.5.135.135 0 0 0 -.229-.141z" fill="#3fafff" transform="translate(6.44 17.728)"/><path d="m2.231 0c-.394.011-2.28 2.266-2.231 4.094a2.406 2.406 0 0 0 2.412 2.406 2.426 2.426 0 0 0 2.27-2.555c-.05-1.829-2.048-3.956-2.451-3.945z" fill="#1f9aff" transform="translate(17.563 5.318)"/><path d="m0 1.4a2.819 2.819 0 0 0 3.477-1.4 1.833 1.833 0 0 1 -1.743 2.358 1.82 1.82 0 0 1 -1.734-.958z" fill="#1790e2" transform="translate(18.148 8.864)"/><path d="m.962.043a4.519 4.519 0 0 0 -.952 1.576c-.057.152.141.217.264.076a4.324 4.324 0 0 0 .887-1.495c.047-.124-.076-.276-.199-.157z" fill="#3fafff" transform="translate(18.148 5.909)"/><path d="m2.015 0a5.14 5.14 0 0 0 -2.007 3.849 2.308 2.308 0 0 0 2.539 2.051 2.273 2.273 0 0 0 2.126-2.448 5.2 5.2 0 0 0 -2.658-3.452z" fill="#1f9aff" transform="translate(35.125)"/><path d="m0 1.535a2.958 2.958 0 0 0 3.446-1.535 1.781 1.781 0 0 1 -1.634 2.345 1.847 1.847 0 0 1 -1.812-.81z" fill="#1790e2" transform="translate(35.711 2.955)"/><path d="m.942.049a4.148 4.148 0 0 0 -.933 1.578c-.054.158.163.2.282.056a4.207 4.207 0 0 0 .868-1.51c.054-.112-.087-.248-.217-.124z" fill="#3fafff" transform="translate(35.711 .591)"/><text fill="#1760a0" font-family="YuGo-Bold, YuGothic" font-size="36" font-weight="700" transform="translate(22.66 22.873)"><tspan x=".227" y="32">①</tspan></text></svg>

<svg xmlns="http://www.w3.org/2000/svg" width="80.788" height="81.547" viewBox="0 0 80.788 81.547">
  <g id="飾りサークル" transform="translate(0 0)">
    <g id="グループ_2" data-name="グループ 2">
      <g id="グループ_1" data-name="グループ 1">
        <g id="グループ_64" data-name="グループ 64">
          <g id="f1460_1">
            <path id="Path" d="M2.119,0C1.721.021-.1,2.338,0,4.159A2.4,2.4,0,0,0,2.476,6.5a2.443,2.443,0,0,0,2.2-2.622C4.571,2.053,2.516-.021,2.119,0Z" transform="translate(48.005 1.182)" fill="#1f9aff"/>
            <path id="Path-2" data-name="Path" d="M0,1.464A2.889,2.889,0,0,0,3.462,0,1.808,1.808,0,0,1,1.774,2.353,1.821,1.821,0,0,1,0,1.464Z" transform="translate(48.59 4.727)" fill="#1790e2"/>
            <path id="Path-3" data-name="Path" d="M.947.044A4.367,4.367,0,0,0,.01,1.623c-.057.158.153.211.277.063A4.429,4.429,0,0,0,1.167.181C1.2.065,1.071-.072.947.044Z" transform="translate(48.59 1.773)" fill="#3fafff"/>
            <path id="Path-4" data-name="Path" d="M3.5,0C3.009-.059.284,2.067.022,4.042A2.771,2.771,0,0,0,2.573,7.071,2.892,2.892,0,0,0,5.833,4.7C6.084,2.726,3.991.062,3.5,0Z" transform="translate(62.055 10.046)" fill="#1f9aff"/>
            <path id="Path-5" data-name="Path" d="M0,.955A3.892,3.892,0,0,0,4.683,0,2.231,2.231,0,0,1,2.026,2.353,2.289,2.289,0,0,1,0,.955Z" transform="translate(62.64 14.182)" fill="#1790e2"/>
            <path id="Path-6" data-name="Path" d="M1.5.035A4.916,4.916,0,0,0,.022,1.581c-.095.157.137.261.326.136A4.928,4.928,0,0,0,1.735.244.158.158,0,0,0,1.5.035Z" transform="translate(63.226 10.637)" fill="#3fafff"/>
            <path id="Path-7" data-name="Path" d="M2.743,0A5.237,5.237,0,0,0,.013,3.407,2.282,2.282,0,0,0,2.094,5.9,2.321,2.321,0,0,0,4.669,3.885,5.1,5.1,0,0,0,2.743,0Z" transform="translate(73.178 23.046)" fill="#1f9aff"/>
            <path id="Path-8" data-name="Path" d="M0,1.008C.761,1.747,2.817,1.442,3.512,0c.019,2.18-1.3,2.415-1.97,2.356A1.89,1.89,0,0,1,0,1.008Z" transform="translate(73.763 26)" fill="#1790e2"/>
            <path id="Path-9" data-name="Path" d="M1,.022A3.174,3.174,0,0,0,.015,1.056c-.067.106.1.171.218.09A3.188,3.188,0,0,0,1.157.161.107.107,0,0,0,1,.022Z" transform="translate(74.349 23.637)" fill="#3fafff"/>
            <path id="Path-10" data-name="Path" d="M2.964,0C2.463,0,.021,2.571,0,4.726a2.927,2.927,0,1,0,5.854.053C5.865,2.625,3.455.011,2.964,0Z" transform="translate(74.934 37.819)" fill="#1f9aff"/>
            <path id="Path-11" data-name="Path" d="M0,1.632C1.119,2.364,3.873,1.743,4.658,0a2.378,2.378,0,0,1-2.42,2.952A2.391,2.391,0,0,1,0,1.632Z" transform="translate(75.519 41.955)" fill="#1790e2"/>
            <path id="Path-12" data-name="Path" d="M1.459.038A4.724,4.724,0,0,0,.018,1.608c-.091.16.194.226.377.094A4.618,4.618,0,0,0,1.744.208C1.8.085,1.642-.074,1.459.038Z" transform="translate(76.105 38.41)" fill="#3fafff"/>
            <path id="Path-13" data-name="Path" d="M3.034,0C2.532-.011.054,2.532,0,4.69a2.927,2.927,0,1,0,5.853.128C5.907,2.66,3.525.011,3.034,0Z" transform="translate(71.421 53.774)" fill="#1f9aff"/>
            <path id="Path-14" data-name="Path" d="M0,1.584C1.1,2.347,3.86,1.741,4.664,0c.225,2.5-1.533,2.932-2.444,2.954A2.422,2.422,0,0,1,0,1.584Z" transform="translate(72.007 57.91)" fill="#1790e2"/>
            <path id="Path-15" data-name="Path" d="M1.462.039A4.678,4.678,0,0,0,.018,1.6c-.09.161.181.237.372.095A4.708,4.708,0,0,0,1.745.209C1.8.086,1.643-.075,1.462.039Z" transform="translate(72.592 54.365)" fill="#3fafff"/>
            <path id="Path-16" data-name="Path" d="M1.744,0A4.653,4.653,0,0,0,.008,3.475,2.049,2.049,0,0,0,4.089,3.1,4.668,4.668,0,0,0,1.744,0Z" transform="translate(62.64 68.547)" fill="#1f9aff"/>
            <path id="Path-17" data-name="Path" d="M0,1.544C.762,1.995,2.478,1.33,2.868,0,3.192,1.792,2.1,2.254,1.515,2.344A1.5,1.5,0,0,1,0,1.544Z" transform="translate(63.811 71.501)" fill="#1790e2"/>
            <path id="Path-18" data-name="Path" d="M.938.032A2.891,2.891,0,0,0,.007,1.086c-.048.106.167.131.287.041a2.785,2.785,0,0,0,.872-1C1.2.04,1.058-.049.938.032Z" transform="translate(63.226 69.729)" fill="#3fafff"/>
            <path id="Path-19" data-name="Path" d="M2.848,0C2.35.011-.031,2.638,0,4.8a2.927,2.927,0,1,0,5.854-.1C5.812,2.554,3.345-.011,2.848,0Z" transform="translate(46.248 73.865)" fill="#1f9aff"/>
            <path id="Path-20" data-name="Path" d="M0,1.7c1.137.689,3.894.011,4.645-1.7a2.351,2.351,0,0,1-2.36,2.95A2.411,2.411,0,0,1,0,1.7Z" transform="translate(46.834 78.001)" fill="#1790e2"/>
            <path id="Path-21" data-name="Path" d="M1.449.043A4.679,4.679,0,0,0,.015,1.614c-.082.156.2.221.385.083A4.522,4.522,0,0,0,1.741.2C1.81.08,1.636-.077,1.449.043Z" transform="translate(46.834 75.047)" fill="#3fafff"/>
            <path id="Path-22" data-name="Path" d="M2.143,0A5.133,5.133,0,0,0,0,3.771a2.312,2.312,0,0,0,2.46,2.135A2.29,2.29,0,0,0,4.68,3.537,5.174,5.174,0,0,0,2.143,0Z" transform="translate(28.686 73.865)" fill="#1f9aff"/>
            <path id="Path-23" data-name="Path" d="M0,1.459A2.877,2.877,0,0,0,3.467,0,1.81,1.81,0,0,1,1.76,2.352,1.8,1.8,0,0,1,0,1.459Z" transform="translate(29.271 76.82)" fill="#1790e2"/>
            <path id="Path-24" data-name="Path" d="M.951.044A4.344,4.344,0,0,0,.009,1.623c-.053.152.148.211.275.07A4.278,4.278,0,0,0,1.163.2C1.2.067,1.078-.073.951.044Z" transform="translate(29.271 74.456)" fill="#3fafff"/>
            <path id="Path-25" data-name="Path" d="M2.03,0A5.152,5.152,0,0,0,.007,3.837,2.31,2.31,0,0,0,2.538,5.9,2.275,2.275,0,0,0,4.674,3.466,5.17,5.17,0,0,0,2.03,0Z" transform="translate(13.465 65.592)" fill="#1f9aff"/>
            <path id="Path-26" data-name="Path" d="M0,1.527A2.933,2.933,0,0,0,3.448,0,1.783,1.783,0,0,1,1.8,2.346,1.844,1.844,0,0,1,0,1.527Z" transform="translate(14.05 68.547)" fill="#1790e2"/>
            <path id="Path-27" data-name="Path" d="M.941.045A4.307,4.307,0,0,0,.008,1.626c-.051.152.154.206.287.065A4.368,4.368,0,0,0,1.166.186C1.2.067,1.064-.074.941.045Z" transform="translate(14.05 66.183)" fill="#3fafff"/>
            <path id="Path-28" data-name="Path" d="M3.076,0C2.576-.021.065,2.5,0,4.655a2.927,2.927,0,1,0,5.851.192C5.917,2.7,3.576.021,3.076,0Z" transform="translate(1.756 50.819)" fill="#1f9aff"/>
            <path id="Path-29" data-name="Path" d="M0,1.236C1.1,1.858,3.847,1.4,4.667,0,4.87,2.021,3.112,2.354,2.2,2.363A2.4,2.4,0,0,1,0,1.236Z" transform="translate(2.342 55.546)" fill="#1790e2"/>
            <path id="Path-30" data-name="Path" d="M1.466.038A4.778,4.778,0,0,0,.018,1.6c-.089.162.178.238.368.1A4.694,4.694,0,0,0,1.745.209C1.8.095,1.645-.077,1.466.038Z" transform="translate(2.927 52.001)" fill="#3fafff"/>
            <path id="Path-31" data-name="Path" d="M2.166,0A5.154,5.154,0,0,0,0,3.761,2.3,2.3,0,0,0,2.452,5.906,2.284,2.284,0,0,0,4.681,3.55,5.187,5.187,0,0,0,2.166,0Z" transform="translate(0 33.682)" fill="#1f9aff"/>
            <path id="Path-32" data-name="Path" d="M0,1.448A2.864,2.864,0,0,0,3.47,0,1.817,1.817,0,0,1,1.756,2.352,1.789,1.789,0,0,1,0,1.448Z" transform="translate(0.585 36.637)" fill="#1790e2"/>
            <path id="Path-33" data-name="Path" d="M.955.049A4.5,4.5,0,0,0,.009,1.623c-.052.152.146.21.27.07A4.461,4.461,0,0,0,1.163.2C1.2.072,1.08-.08.955.049Z" transform="translate(0.585 34.273)" fill="#3fafff"/>
            <path id="Path-34" data-name="Path" d="M2.167,0C1.725.053-.195,2.694.016,4.672a2.652,2.652,0,0,0,2.9,2.4A2.694,2.694,0,0,0,5.252,4.081C5.041,2.093,2.609-.051,2.167,0Z" transform="translate(5.854 16.546)" fill="#1f9aff"/>
            <path id="Path-35" data-name="Path" d="M0,1.978C1.075,2.514,3.477,1.652,4,0A2.168,2.168,0,0,1,2.149,2.924,2.15,2.15,0,0,1,0,1.978Z" transform="translate(6.44 20.091)" fill="#1790e2"/>
            <path id="Path-36" data-name="Path" d="M.933.047A4.3,4.3,0,0,0,.006,1.633c-.046.156.165.192.294.055a4.207,4.207,0,0,0,.862-1.5A.135.135,0,0,0,.933.047Z" transform="translate(6.44 17.728)" fill="#3fafff"/>
            <path id="Path-37" data-name="Path" d="M2.231,0C1.837.011-.049,2.266,0,4.094A2.406,2.406,0,0,0,2.412,6.5a2.426,2.426,0,0,0,2.27-2.555C4.632,2.116,2.634-.011,2.231,0Z" transform="translate(17.563 5.318)" fill="#1f9aff"/>
            <path id="Path-38" data-name="Path" d="M0,1.4A2.819,2.819,0,0,0,3.477,0,1.833,1.833,0,0,1,1.734,2.358,1.82,1.82,0,0,1,0,1.4Z" transform="translate(18.148 8.864)" fill="#1790e2"/>
            <path id="Path-39" data-name="Path" d="M.962.043A4.519,4.519,0,0,0,.01,1.619c-.057.152.141.217.264.076A4.324,4.324,0,0,0,1.161.2C1.208.076,1.085-.076.962.043Z" transform="translate(18.148 5.909)" fill="#3fafff"/>
            <path id="Path-40" data-name="Path" d="M2.015,0A5.14,5.14,0,0,0,.008,3.849,2.308,2.308,0,0,0,2.547,5.9,2.273,2.273,0,0,0,4.673,3.452,5.2,5.2,0,0,0,2.015,0Z" transform="translate(35.125)" fill="#1f9aff"/>
            <path id="Path-41" data-name="Path" d="M0,1.535A2.958,2.958,0,0,0,3.446,0,1.781,1.781,0,0,1,1.812,2.345,1.847,1.847,0,0,1,0,1.535Z" transform="translate(35.711 2.955)" fill="#1790e2"/>
            <path id="Path-42" data-name="Path" d="M.942.049A4.148,4.148,0,0,0,.009,1.627c-.054.158.163.2.282.056A4.207,4.207,0,0,0,1.159.173C1.213.061,1.072-.075.942.049Z" transform="translate(35.711 0.591)" fill="#3fafff"/>
          </g>
          <text id="_" data-name="①" transform="translate(22.66 22.873)" fill="#1760a0" font-size="36" font-family="YuGo-Bold, YuGothic" font-weight="700"><tspan x="0.227" y="32">①</tspan></text>
        </g>
      </g>
    </g>
  </g>
</svg>
